packages/sights/assets/overlays/AEc967h1.svg

<svg width="500" height="375" viewBox="0 0 500 375" fill="none" xmlns="http://www.w3.org/2000/svg">
<path d="M10.5312 96.4703C10.5312 96.4703 47.8312 90.6603 58.8312 89.1303L137.561 40.3603L150.701 35.4703C150.701 35.4703 233.601 18.4003 347.331 29.4003C347.331 29.4003 413.941 36.7003 425.861 40.6703L429.421 45.5603V56.4503L463.771 89.2803C470.297 92.4252 476.303 96.5496 481.581 101.51L491.441 106.51V109.95L488.691 114.95L488.461 127.56L485.251 135.56L490.301 151.84C490.301 151.84 485.021 177.52 484.111 181.65L477.461 195.4L463.461 205.8" stroke="white" stroke-miterlimit="10"/>
<path d="M426.421 163.58L440.541 169.31C446.284 171.771 451.443 175.418 455.681 180.01C468.371 192.57 465.341 218.75 448.271 240.01C430.451 262.17 404.711 269.01 389.371 258.73L367.161 240.15L364.641 233.9" stroke="white" stroke-miterlimit="10"/>
<path d="M443.045 236.667C456.998 219.668 458.848 198.122 447.177 188.542C435.505 178.962 414.733 184.976 400.78 201.975C386.827 218.974 384.977 240.52 396.648 250.1C408.319 259.68 429.092 253.666 443.045 236.667Z" stroke="white" stroke-miterlimit="10"/>
<path d="M463.481 195.98C463.481 195.98 473.331 158.38 435.041 160.79C435.041 160.79 386.651 170.53 369.691 226.25C369.691 226.25 364.761 235.65 362.001 237.03L55.3214 302.15C55.3214 302.15 39.0114 255.83 9.94141 243.45" stroke="white" stroke-miterlimit="10"/>
<path d="M9.94141 355.58C9.94141 355.58 28.9414 338.84 32.6214 331.96C32.6214 331.96 48.0314 297.25 45.3714 280.67" stroke="white" stroke-miterlimit="10"/>
<path d="M9.94141 231.41C9.94141 231.41 37.6214 240.62 56.2714 273.03L368.121 209.13C368.121 209.13 376.071 189.89 386.121 180.4" stroke="white" stroke-miterlimit="10"/>
<path d="M137.56 40.3604C137.56 40.3604 159.19 45.1004 160.79 47.3604C160.79 47.3604 88.33 86.8003 36.05 129.45L14.35 133.45L9 131.62" stroke="white" stroke-miterlimit="10"/>
<path d="M58.8291 89.1299C58.8291 89.1299 19.0891 113.9 16.1791 116.49C16.1791 116.49 5.93916 124.9 14.3491 133.49" stroke="white" stroke-miterlimit="10"/>
<path d="M53.1414 92.6797C53.1414 92.6797 14.7814 101.36 9.94141 107.9" stroke="white" stroke-miterlimit="10"/>
<path d="M465.859 90.3204C466.759 92.7704 464.609 92.1104 464.609 92.1104L428.389 59.5504C415.999 45.5504 373.119 42.3504 373.119 42.3504C214.449 29.0504 165.689 54.4304 165.689 54.4304C119.209 79.1904 55.0091 135.14 55.0091 135.14L49.5091 149.51L47.3691 176.11C47.3691 176.11 52.3691 238.77 67.4491 270.73L66.9291 276.73L76.6791 297.64" stroke="white" stroke-miterlimit="10"/>
<path d="M51.6113 144.03C51.6113 144.03 82.2213 140.49 87.2613 140.8C87.2613 140.8 115.851 142.94 125.021 141.72L128.541 139.12V122C128.541 122 116.461 108.08 111.721 105H108.361C108.361 105 82.6813 115.09 81.7613 120.28L82.0713 122.58L87.4213 132.05L55.0113 135.11" stroke="white" stroke-miterlimit="10"/>
<path d="M277.94 38.5C277.94 38.5 279.85 94.17 275.49 114.12L276.92 122.61C276.92 122.61 274.12 195.52 271.37 216.61L267.57 229.73L270.86 246.9L268.3 256.9" stroke="white" stroke-miterlimit="10"/>
<path d="M371.711 42.2305C371.711 42.2305 411.651 88.9005 416.711 97.6105L421.941 102.9V105.9L429.551 116.68C429.97 129.499 428.188 142.294 424.281 154.51" stroke="white" stroke-miterlimit="10"/>
<path d="M481.582 101.51C481.582 101.51 472.492 104.57 470.352 107.17V112.17C470.352 112.17 479.832 128.22 481.582 129.75C481.582 129.75 486.862 129.29 488.462 127.61" stroke="white" stroke-miterlimit="10"/>
<path d="M418.221 156.24C418.681 156.08 457.971 139.38 471.111 166.92C471.111 166.92 475.241 175.04 473.861 190.92C473.861 190.92 479.671 190.46 484.111 181.75" stroke="white" stroke-miterlimit="10"/>
<path d="M236.462 154.36C236.462 154.36 227.522 157.8 226.602 158.72V163.31C226.602 163.31 257.602 165.37 268.222 157V152.07C268.222 152.07 260.312 150.93 255.722 152.07C255.722 152.07 256.922 154.07 256.722 155.28C251.036 157.645 244.817 158.43 238.722 157.55C238.069 157.304 237.506 156.869 237.103 156.301C236.7 155.732 236.477 155.056 236.462 154.36Z" stroke="white" stroke-miterlimit="10"/>
<path d="M397.942 129.9C397.942 129.9 399.622 134.11 406.272 133.5C406.272 133.5 413.762 133.18 415.142 131.73C415.142 131.73 415.442 130.59 412.842 128.38C412.842 128.38 419.652 127.69 420.842 128.38L422.372 130.29L421.682 133.96C411.816 137.913 401.053 139.075 390.572 137.32C390.572 137.32 390.042 134.52 391.412 133.09C393.448 131.76 395.641 130.689 397.942 129.9Z" stroke="white" stroke-miterlimit="10"/>
<path d="M128.539 131.47C128.539 131.47 406.299 99.5204 416.689 97.6104" stroke="white" stroke-miterlimit="10"/>
</svg>

<svg width="500" height="375" fill="none" xmlns="http://www.w3.org/2000/svg"><path d="M10.531 96.47s37.3-5.81 48.3-7.34l78.73-48.77 13.14-4.89s82.9-17.07 196.63-6.07c0 0 66.61 7.3 78.53 11.27l3.56 4.89v10.89l34.35 32.83a71.036 71.036 0 0 1 17.81 12.23l9.86 5v3.44l-2.75 5-.23 12.61-3.21 8 5.05 16.28s-5.28 25.68-6.19 29.81l-6.65 13.75-14 10.4" stroke="#fff" stroke-miterlimit="10"/><path d="m426.421 163.58 14.12 5.73a44.405 44.405 0 0 1 15.14 10.7c12.69 12.56 9.66 38.74-7.41 60-17.82 22.16-43.56 29-58.9 18.72l-22.21-18.58-2.52-6.25" stroke="#fff" stroke-miterlimit="10"/><path d="M443.045 236.667c13.953-16.999 15.803-38.545 4.132-48.125-11.672-9.58-32.444-3.566-46.397 13.433-13.953 16.999-15.803 38.545-4.132 48.125 11.671 9.58 32.444 3.566 46.397-13.433Z" stroke="#fff" stroke-miterlimit="10"/><path d="M463.481 195.98s9.85-37.6-28.44-35.19c0 0-48.39 9.74-65.35 65.46 0 0-4.93 9.4-7.69 10.78l-306.68 65.12s-16.31-46.32-45.38-58.7" stroke="#fff" stroke-miterlimit="10"/><path d="M9.941 355.58s19-16.74 22.68-23.62c0 0 15.41-34.71 12.75-51.29M9.941 231.41s27.68 9.21 46.33 41.62l311.85-63.9s7.95-19.24 18-28.73M137.56 40.36s21.63 4.74 23.23 7c0 0-72.46 39.44-124.74 82.09l-21.7 4L9 131.62" stroke="#fff" stroke-miterlimit="10"/><path d="M58.83 89.13s-39.74 24.77-42.65 27.36c0 0-10.24 8.41-1.83 17" stroke="#fff" stroke-miterlimit="10"/><path d="M53.141 92.68s-38.36 8.68-43.2 15.22M465.859 90.32c.9 2.45-1.25 1.79-1.25 1.79l-36.22-32.56c-12.39-14-55.27-17.2-55.27-17.2-158.67-13.3-207.43 12.08-207.43 12.08-46.48 24.76-110.68 80.71-110.68 80.71l-5.5 14.37-2.14 26.6s5 62.66 20.08 94.62l-.52 6 9.75 20.91" stroke="#fff" stroke-miterlimit="10"/><path d="M51.611 144.03s30.61-3.54 35.65-3.23c0 0 28.59 2.14 37.76.92l3.52-2.6V122s-12.08-13.92-16.82-17h-3.36s-25.68 10.09-26.6 15.28l.31 2.3 5.35 9.47-32.41 3.06M277.94 38.5s1.91 55.67-2.45 75.62l1.43 8.49s-2.8 72.91-5.55 94l-3.8 13.12 3.29 17.17-2.56 10M371.711 42.23s39.94 46.67 45 55.38l5.23 5.29v3l7.61 10.78a112.154 112.154 0 0 1-5.27 37.83M481.582 101.51s-9.09 3.06-11.23 5.66v5s9.48 16.05 11.23 17.58c0 0 5.28-.46 6.88-2.14" stroke="#fff" stroke-miterlimit="10"/><path d="M418.221 156.24c.46-.16 39.75-16.86 52.89 10.68 0 0 4.13 8.12 2.75 24 0 0 5.81-.46 10.25-9.17M236.462 154.36s-8.94 3.44-9.86 4.36v4.59s31 2.06 41.62-6.31v-4.93s-7.91-1.14-12.5 0c0 0 1.2 2 1 3.21a34.16 34.16 0 0 1-18 2.27 3.495 3.495 0 0 1-2.26-3.19ZM397.942 129.9s1.68 4.21 8.33 3.6c0 0 7.49-.32 8.87-1.77 0 0 .3-1.14-2.3-3.35 0 0 6.81-.69 8 0l1.53 1.91-.69 3.67a57.926 57.926 0 0 1-31.11 3.36s-.53-2.8.84-4.23a29.338 29.338 0 0 1 6.53-3.19ZM128.539 131.47s277.76-31.95 288.15-33.86" stroke="#fff" stroke-miterlimit="10"/></svg>
